assets/Pen/Flat/pen_flat.svg

<svg width="32" height="32" viewBox="0 0 32 32" fill="none" xmlns="http://www.w3.org/2000/svg">
<path d="M3.27393 28.0227C3.46919 27.8274 3.78578 27.8274 3.98104 28.0227C4.1763 28.2179 4.1763 28.5345 3.98104 28.7298L2.56683 30.144C2.37156 30.3392 2.05498 30.3392 1.85972 30.144C1.66446 29.9487 1.66446 29.6321 1.85972 29.4369L3.27393 28.0227Z" fill="#402A32"/>
<path d="M27.9001 8.10118C28.1994 7.95818 28.48 7.7627 28.7279 7.51475C29.8995 6.34318 29.8995 4.44369 28.7279 3.27211C27.5563 2.10054 25.6569 2.10054 24.4853 3.27211C24.2373 3.52006 24.0418 3.80062 23.8989 4.09998L23.7782 3.97928L13.5691 12.1405C13.5691 13.3175 12.5867 14.2613 11.4102 14.2259L11.3453 14.2909C11.1201 14.516 10.917 14.7621 10.7387 15.0258L3.62561 25.546L4.57008 27.5017L6.45404 28.3745L16.9743 21.2614C17.238 21.083 17.4841 20.8799 17.7092 20.6548L17.7785 20.5855L17.7879 20.2879C17.8223 19.1986 18.7607 18.3595 19.8471 18.4465L28.0208 8.22192L27.9001 8.10118Z" fill="#0074BA"/>
<path d="M29.435 8.2218L24.4853 3.27209L23.7782 3.9792L28.7279 8.92892L23.4246 14.2322C23.2294 14.4275 23.2294 14.7441 23.4246 14.9393C23.6199 15.1346 23.9365 15.1346 24.1317 14.9393L29.435 9.63602C29.8256 9.24549 29.8256 8.61233 29.435 8.2218Z" fill="#F9C23C"/>
<path d="M11.4038 14.2323L13.2026 12.4335L13.5611 12.1469L19.8531 18.439L19.5665 18.7975L17.7677 20.5963L11.4038 14.2323Z" fill="#F9C23C"/>
<path d="M6.45225 28.3762L3.62382 25.5477L3.27027 25.9013C2.48922 26.6823 2.48922 27.9487 3.27027 28.7297C4.05131 29.5108 5.31764 29.5108 6.09869 28.7297L6.45225 28.3762Z" fill="#F9C23C"/>
</svg>

<svg xmlns="http://www.w3.org/2000/svg" width="32" height="32" fill="none"><path fill="#402A32" d="M3.274 28.023a.5.5 0 1 1 .707.707l-1.414 1.414a.5.5 0 0 1-.707-.707l1.414-1.414Z"/><path fill="#0074BA" d="M27.9 8.101A3 3 0 1 0 23.9 4.1l-.12-.12-10.21 8.16c0 1.178-.982 2.121-2.159 2.086l-.065.065a4.994 4.994 0 0 0-.606.735l-7.113 10.52.944 1.956 1.884.873 10.52-7.114c.264-.178.51-.381.735-.606l.07-.07.009-.297a1.908 1.908 0 0 1 2.06-1.841L28.02 8.222l-.12-.12Z"/><path fill="#F9C23C" d="m29.435 8.222-4.95-4.95-.707.707 4.95 4.95-5.303 5.303a.5.5 0 0 0 .707.707l5.303-5.303a1 1 0 0 0 0-1.414ZM11.404 14.232l1.799-1.798.358-.287 6.292 6.292-.287.358-1.798 1.8-6.364-6.365ZM6.452 28.376l-2.828-2.828-.354.353A2 2 0 1 0 6.1 28.73l.353-.354Z"/></svg>
